packages/tokens/icons/userStatus/size16Px.svg

<svg viewBox="0 0 16 16" fill="none" xmlns="http://www.w3.org/2000/svg" width="1em" height="1em"><path d="M10 12L11.5 13.5L14.5 10.5" stroke="currentColor" stroke-linecap="round" stroke-linejoin="round"/><path d="M10.5 7.5L12.5 5.5M12.5 5.5L14.5 3.5M12.5 5.5L14.5 7.5M12.5 5.5L10.5 3.5" stroke="currentColor" stroke-linecap="round" stroke-linejoin="round"/><path d="M2.5 13.5V12.5C2.5 11.3954 3.39543 10.5 4.5 10.5L8.5 10.5" stroke="currentColor" stroke-linecap="round" stroke-linejoin="round"/><path d="M6.5 7.5C7.60457 7.5 8.5 6.60457 8.5 5.5C8.5 4.39543 7.60457 3.5 6.5 3.5C5.39543 3.5 4.5 4.39543 4.5 5.5C4.5 6.60457 5.39543 7.5 6.5 7.5Z" stroke="currentColor" stroke-linecap="round" stroke-linejoin="round"/></svg>

<svg xmlns="http://www.w3.org/2000/svg" fill="none" viewBox="0 0 16 16" width="1em" height="1em"><path stroke="currentColor" stroke-linecap="round" stroke-linejoin="round" d="m10 12 1.5 1.5 3-3m-4-3 2-2m0 0 2-2m-2 2 2 2m-2-2-2-2m-8 10v-1a2 2 0 0 1 2-2h4m-2-3a2 2 0 1 0 0-4 2 2 0 0 0 0 4Z"/></svg>
